src/assets/userAvatar.svg

<svg width="55" height="55" viewBox="0 0 820 820" fill="none" xmlns="http://www.w3.org/2000/svg"><rect width="820" height="820" rx="133" fill="#1300EE"/><path d="M502.759 272.545c0 5.195-.354 10.39-1.003 15.526.295-2.066.59-4.191.826-6.257a121.294 121.294 0 01-8.082 29.812c.767-1.889 1.593-3.778 2.36-5.667-3.952 9.327-9.025 18.064-15.219 26.093l3.716-4.782a119.927 119.927 0 01-21.176 21.193l4.778-3.719c-8.023 6.14-16.753 11.276-26.073 15.231 1.888-.767 3.775-1.594 5.663-2.361a120.987 120.987 0 01-29.789 8.087c2.065-.295 4.188-.59 6.253-.826a118.658 118.658 0 01-31.027 0c2.064.295 4.188.59 6.252.826a120.987 120.987 0 01-29.789-8.087c1.888.767 3.776 1.594 5.663 2.361-9.32-3.955-18.05-9.032-26.072-15.231l4.778 3.719a119.932 119.932 0 01-21.177-21.193l3.716 4.782c-6.134-8.029-11.266-16.766-15.218-26.093.767 1.889 1.592 3.778 2.359 5.667a121.292 121.292 0 01-8.081-29.812c.295 2.066.59 4.191.826 6.257a118.935 118.935 0 010-31.052c-.295 2.066-.59 4.192-.826 6.258a121.288 121.288 0 018.081-29.813c-.767 1.889-1.592 3.779-2.359 5.668 3.952-9.328 9.025-18.065 15.218-26.094l-3.716 4.782a119.966 119.966 0 0121.177-21.193l-4.778 3.719c8.022-6.14 16.752-11.276 26.072-15.231-1.887.768-3.775 1.594-5.663 2.362a120.989 120.989 0 0129.789-8.088c-2.064.295-4.188.59-6.252.826a118.745 118.745 0 0131.027 0c-2.065-.295-4.188-.59-6.253-.826a120.989 120.989 0 0129.789 8.088c-1.888-.768-3.775-1.594-5.663-2.362 9.32 3.955 18.05 9.032 26.073 15.231l-4.778-3.719a119.96 119.96 0 0121.176 21.193l-3.716-4.782c6.135 8.029 11.267 16.766 15.219 26.094-.767-1.889-1.593-3.779-2.36-5.668a121.29 121.29 0 018.082 29.813c-.295-2.066-.59-4.192-.826-6.258.649 5.136.944 10.331 1.003 15.526.059 12.338 10.794 24.204 23.595 23.614 12.741-.59 23.654-10.39 23.595-23.614-.118-28.277-8.613-57.204-25.247-80.228-4.483-6.198-9.261-12.279-14.57-17.769-5.368-5.549-11.267-10.331-17.401-14.995-11.149-8.501-23.595-14.758-36.809-19.599-53.265-19.541-117.503-2.125-153.544 41.796-4.955 6.022-9.674 12.279-13.685 19.009-4.011 6.671-7.138 13.755-10.028 20.957-5.427 13.342-8.199 27.511-9.32 41.856-2.183 28.1 5.132 57.44 19.761 81.526 14.098 23.26 35.392 43.214 60.285 54.489 7.314 3.306 14.806 6.376 22.592 8.56 7.728 2.125 15.573 3.306 23.536 4.251 14.511 1.712 29.317.531 43.651-2.362 54.446-11.098 100.043-58.031 108.478-113.11 1.239-8.028 2.183-16.057 2.183-24.204.059-12.338-10.913-24.204-23.595-23.614-12.742.414-23.477 10.213-23.477 23.437zm78.276 369.142H278.37c-13.39 0-26.78.118-40.171 0-1.474 0-2.949-.118-4.365-.295 2.065.295 4.188.59 6.253.827-2.36-.355-4.601-1.004-6.784-1.89 1.888.768 3.776 1.594 5.663 2.362-2.359-1.004-4.542-2.303-6.606-3.896l4.778 3.719c-1.77-1.476-3.422-3.07-4.837-4.841l3.716 4.782c-1.593-2.067-2.832-4.251-3.893-6.612.766 1.889 1.592 3.778 2.359 5.667-.885-2.184-1.475-4.486-1.887-6.789.295 2.066.589 4.192.825 6.258-.943-7.143-.295-14.7-.295-21.902V593.81c0-6.316.354-12.574 1.18-18.832-.295 2.067-.59 4.192-.826 6.258 1.652-12.102 4.837-23.968 9.615-35.244-.766 1.89-1.592 3.779-2.359 5.668a138.866 138.866 0 0117.637-30.108l-3.716 4.782c7.137-9.15 15.337-17.415 24.539-24.558l-4.778 3.719a138.677 138.677 0 0130.083-17.651c-1.887.767-3.775 1.593-5.662 2.361 11.266-4.723 23.064-7.97 35.215-9.623-2.064.295-4.188.591-6.253.827 8.731-1.122 17.402-1.181 26.191-1.181h107.947c9.733 0 19.407-.059 29.14 1.181a226.736 226.736 0 00-6.253-.827c12.093 1.653 23.949 4.841 35.216 9.623-1.888-.768-3.775-1.594-5.663-2.361a138.66 138.66 0 0130.084 17.651l-4.778-3.719c9.143 7.143 17.401 15.349 24.539 24.558l-3.717-4.782a138.83 138.83 0 0117.638 30.108c-.767-1.889-1.593-3.778-2.36-5.668 4.719 11.276 7.964 23.083 9.615 35.244-.295-2.066-.59-4.191-.826-6.258 1.121 8.915 1.18 17.77 1.18 26.743v29.222c0 3.365.118 6.73-.295 10.036.295-2.066.59-4.192.826-6.258-.354 2.362-1.003 4.605-1.888 6.789.767-1.889 1.593-3.778 2.36-5.667-1.003 2.361-2.301 4.545-3.893 6.612l3.716-4.782c-1.475 1.771-3.067 3.424-4.837 4.841l4.778-3.719c-2.065 1.593-4.247 2.833-6.607 3.896 1.888-.768 3.776-1.594 5.663-2.362-2.182.886-4.483 1.476-6.783 1.89 2.064-.296 4.188-.591 6.252-.827-1.298.177-2.654.236-4.011.295-6.076.059-12.328 2.598-16.693 6.907-4.071 4.074-7.197 10.804-6.902 16.707.59 12.633 10.382 23.791 23.595 23.614 22.946-.354 43.12-15.349 49.845-37.369 2.654-8.737 2.064-18.124 2.064-27.097 0-20.544.649-40.911-2.89-61.278-5.191-29.812-20.174-57.853-40.702-79.873-20.527-22.02-48.134-38.195-77.332-45.398-16.753-4.132-33.623-4.781-50.73-4.781H356.646c-17.519 0-34.92.826-51.968 5.372-28.963 7.674-56.215 24.027-76.33 46.224-20.291 22.374-34.979 50.474-39.757 80.464-3.185 20.13-2.537 40.32-2.537 60.628 0 9.327-.531 19.068 2.832 27.982 4.365 11.453 11.325 20.485 21.53 27.274 7.964 5.254 18.05 7.793 27.488 7.911 4.601.059 9.202 0 13.804 0h329.386c12.328 0 24.185-10.863 23.595-23.614-.59-12.87-10.382-23.673-23.654-23.673z" fill="#fff"/></svg>

<svg width="55" height="55" viewBox="0 0 820 820" fill="none" xmlns="http://www.w3.org/2000/svg">
<rect width="820" height="820" rx="133" fill="#1300EE"/>
<path d="M502.759 272.545C502.759 277.74 502.405 282.935 501.756 288.071C502.051 286.005 502.346 283.88 502.582 281.814C501.166 292.085 498.452 302.062 494.5 311.626C495.267 309.737 496.093 307.848 496.86 305.959C492.908 315.286 487.835 324.023 481.641 332.052L485.357 327.27C479.223 335.181 472.085 342.324 464.181 348.463L468.959 344.744C460.936 350.884 452.206 356.02 442.886 359.975C444.774 359.208 446.661 358.381 448.549 357.614C438.993 361.569 429.024 364.285 418.76 365.701C420.825 365.406 422.948 365.111 425.013 364.875C414.69 366.233 404.308 366.233 393.986 364.875C396.05 365.17 398.174 365.465 400.238 365.701C389.974 364.285 380.005 361.569 370.449 357.614C372.337 358.381 374.225 359.208 376.112 359.975C366.792 356.02 358.062 350.943 350.04 344.744L354.818 348.463C346.913 342.324 339.776 335.181 333.641 327.27L337.357 332.052C331.223 324.023 326.091 315.286 322.139 305.959C322.906 307.848 323.731 309.737 324.498 311.626C320.546 302.062 317.833 292.085 316.417 281.814C316.712 283.88 317.007 286.005 317.243 288.071C315.886 277.74 315.886 267.35 317.243 257.019C316.948 259.085 316.653 261.211 316.417 263.277C317.833 253.005 320.546 243.028 324.498 233.464C323.731 235.353 322.906 237.243 322.139 239.132C326.091 229.804 331.164 221.067 337.357 213.038L333.641 217.82C339.776 209.91 346.913 202.766 354.818 196.627L350.04 200.346C358.062 194.206 366.792 189.07 376.112 185.115C374.225 185.883 372.337 186.709 370.449 187.477C380.005 183.521 389.974 180.806 400.238 179.389C398.174 179.684 396.05 179.979 393.986 180.215C404.308 178.858 414.69 178.858 425.013 180.215C422.948 179.92 420.825 179.625 418.76 179.389C429.024 180.806 438.993 183.521 448.549 187.477C446.661 186.709 444.774 185.883 442.886 185.115C452.206 189.07 460.936 194.147 468.959 200.346L464.181 196.627C472.085 202.766 479.223 209.91 485.357 217.82L481.641 213.038C487.776 221.067 492.908 229.804 496.86 239.132C496.093 237.243 495.267 235.353 494.5 233.464C498.452 243.028 501.166 253.005 502.582 263.277C502.287 261.211 501.992 259.085 501.756 257.019C502.405 262.155 502.7 267.35 502.759 272.545C502.818 284.883 513.553 296.749 526.354 296.159C539.095 295.569 550.008 285.769 549.949 272.545C549.831 244.268 541.336 215.341 524.702 192.317C520.219 186.119 515.441 180.038 510.132 174.548C504.764 168.999 498.865 164.217 492.731 159.553C481.582 151.052 469.136 144.795 455.922 139.954C402.657 120.413 338.419 137.829 302.378 181.75C297.423 187.772 292.704 194.029 288.693 200.759C284.682 207.43 281.555 214.514 278.665 221.716C273.238 235.058 270.466 249.227 269.345 263.572C267.162 291.672 274.477 321.012 289.106 345.098C303.204 368.358 324.498 388.312 349.391 399.587C356.705 402.893 364.197 405.963 371.983 408.147C379.711 410.272 387.556 411.453 395.519 412.398C410.03 414.11 424.836 412.929 439.17 410.036C493.616 398.938 539.213 352.005 547.648 296.926C548.887 288.898 549.831 280.869 549.831 272.722C549.89 260.384 538.918 248.518 526.236 249.108C513.494 249.522 502.759 259.321 502.759 272.545ZM581.035 641.687H278.37C264.98 641.687 251.59 641.805 238.199 641.687C236.725 641.687 235.25 641.569 233.834 641.392C235.899 641.687 238.022 641.982 240.087 642.219C237.727 641.864 235.486 641.215 233.303 640.329C235.191 641.097 237.079 641.923 238.966 642.691C236.607 641.687 234.424 640.388 232.36 638.795L237.138 642.514C235.368 641.038 233.716 639.444 232.301 637.673L236.017 642.455C234.424 640.388 233.185 638.204 232.124 635.843C232.89 637.732 233.716 639.621 234.483 641.51C233.598 639.326 233.008 637.024 232.596 634.721C232.891 636.787 233.185 638.913 233.421 640.979C232.478 633.836 233.126 626.279 233.126 619.077V593.81C233.126 587.494 233.48 581.236 234.306 574.978C234.011 577.045 233.716 579.17 233.48 581.236C235.132 569.134 238.317 557.268 243.095 545.992C242.329 547.882 241.503 549.771 240.736 551.66C245.337 540.915 251.236 530.821 258.373 521.552L254.657 526.334C261.794 517.184 269.994 508.919 279.196 501.776L274.418 505.495C283.679 498.352 293.766 492.448 304.501 487.844C302.614 488.611 300.726 489.437 298.839 490.205C310.105 485.482 321.903 482.235 334.054 480.582C331.99 480.877 329.866 481.173 327.801 481.409C336.532 480.287 345.203 480.228 353.992 480.228H461.939C471.672 480.228 481.346 480.169 491.079 481.409C489.014 481.114 486.891 480.818 484.826 480.582C496.919 482.235 508.775 485.423 520.042 490.205C518.154 489.437 516.267 488.611 514.379 487.844C525.115 492.448 535.202 498.352 544.463 505.495L539.685 501.776C548.828 508.919 557.086 517.125 564.224 526.334L560.507 521.552C567.645 530.821 573.544 540.915 578.145 551.66C577.378 549.771 576.552 547.882 575.785 545.992C580.504 557.268 583.749 569.075 585.4 581.236C585.105 579.17 584.81 577.045 584.574 574.978C585.695 583.893 585.754 592.748 585.754 601.721V630.943C585.754 634.308 585.872 637.673 585.459 640.979C585.754 638.913 586.049 636.787 586.285 634.721C585.931 637.083 585.282 639.326 584.397 641.51C585.164 639.621 585.99 637.732 586.757 635.843C585.754 638.204 584.456 640.388 582.864 642.455L586.58 637.673C585.105 639.444 583.513 641.097 581.743 642.514L586.521 638.795C584.456 640.388 582.274 641.628 579.914 642.691C581.802 641.923 583.69 641.097 585.577 640.329C583.395 641.215 581.094 641.805 578.794 642.219C580.858 641.923 582.982 641.628 585.046 641.392C583.748 641.569 582.392 641.628 581.035 641.687C574.959 641.746 568.707 644.285 564.342 648.594C560.271 652.668 557.145 659.398 557.44 665.301C558.03 677.934 567.822 689.092 581.035 688.915C603.981 688.561 624.155 673.566 630.88 651.546C633.534 642.809 632.944 633.422 632.944 624.449C632.944 603.905 633.593 583.538 630.054 563.171C624.863 533.359 609.88 505.318 589.352 483.298C568.825 461.278 541.218 445.103 512.02 437.9C495.267 433.768 478.397 433.119 461.29 433.119H356.646C339.127 433.119 321.726 433.945 304.678 438.491C275.715 446.165 248.463 462.518 228.348 484.715C208.057 507.089 193.369 535.189 188.591 565.179C185.406 585.309 186.054 605.499 186.054 625.807C186.054 635.134 185.523 644.875 188.886 653.789C193.251 665.242 200.211 674.274 210.416 681.063C218.38 686.317 228.466 688.856 237.904 688.974C242.505 689.033 247.106 688.974 251.708 688.974H581.094C593.422 688.974 605.279 678.111 604.689 665.36C604.099 652.49 594.307 641.687 581.035 641.687Z" fill="white"/>
</svg>
